icon-themes/breeze_svg/cmd/lc_firstrecord.svg

<svg viewBox="0 0 24 24" xmlns="http://www.w3.org/2000/svg"><path d="m5 4v16h1v-16zm11.349609 0-5.626953 6.125-1.722656 1.875 1.722656 1.875 5.626953 6.125.650391-.707031-5.626953-6.125-1.074219-1.167969 1.074219-1.167969 5.626953-6.1249998z" fill="#4d4d4d"/></svg>

<svg xmlns="http://www.w3.org/2000/svg" viewBox="0 0 24 24">
 <path 
     style="fill:#4d4d4d" 
     d="M 5 4 L 5 20 L 6 20 L 6 4 L 5 4 z M 16.349609 4 L 10.722656 10.125 L 9 12 L 10.722656 13.875 L 16.349609 20 L 17 19.292969 L 11.373047 13.167969 L 10.298828 12 L 11.373047 10.832031 L 17 4.7070312 L 16.349609 4 z "
     />
 </svg>
